X: 1
T: Lady Mary Hope Vere
M: 4/4
L: 1/8
R: reel
K: Dmaj
d2 AG FGAF|GEed cABc|d2 AG FGAg|faeg fddz:|
|:fdad bdag|fdaf geeg|1fdad bdaf|geag fddg:|2 fdcd BdAG| FAge fddz||
